X: 1
T: Dunga & The Badger
M: 4/4
L: 1/8
R: reel
K: Emin
|:E3F GABd|~e3d edBG|AcBG A2 (3ccA|BGAF GEDB,|
B,E(3EGE EFGA|Beed edBA|GE~E2 FD~D2|1 A,B,DF EE(3FEE:|2 A,B,DF E2gf||
|:eB~B2 dBeB|(3BcB dB eBdB|cABG AFGE|DEFG ABcd|
eB~B2 cBdB|eBdB cdef|~g3a gedB|1 ABdf e2gf:|2 ABdf edBA||
